assets/svg/action_wallet_changelog.svg

<svg width="81" height="80" viewBox="0 0 81 80" fill="none" xmlns="http://www.w3.org/2000/svg">
<path d="M46.3695 65.3419H52.8945V58.8637H49.7852C49.4836 58.8637 49.2383 58.6184 49.2383 58.3169C49.2383 58.0153 49.4836 57.77 49.7852 57.77H52.8836C52.7477 56.2919 51.2305 55.3106 49.8039 55.8481L39.4398 59.7513C38.8754 59.9639 38.3892 60.3435 38.0461 60.8396C37.7029 61.3357 37.5193 61.9246 37.5195 62.5278V65.0809C37.5195 67.0153 39.0867 68.5825 41.0211 68.5825H51.143C52.1102 68.5825 52.8945 67.7981 52.8945 66.8309V66.4372H46.3695C46.2243 66.4372 46.085 66.3795 45.9823 66.2768C45.8796 66.1741 45.8219 66.0348 45.8219 65.8895C45.8219 65.7443 45.8796 65.605 45.9823 65.5023C46.085 65.3996 46.2243 65.3419 46.3695 65.3419Z" fill="#E1EAF8"/>
<path d="M61.1562 8.76232H53.5516C53.25 8.76232 53.0047 9.00763 53.0047 9.30919C53.0047 9.61076 53.25 9.85607 53.5516 9.85607H61.1562C61.9359 9.85607 62.5703 10.4904 62.5703 11.2701V75.5373C62.5703 76.317 61.9359 76.9514 61.1562 76.9514H19.8469C19.0672 76.9514 18.4328 76.317 18.4328 75.5373V11.2701C18.4328 10.4904 19.0672 9.85607 19.8469 9.85607H29.65L31.6984 14.142C32.0234 14.8217 32.7219 15.2623 33.475 15.2623H47.5266C48.2812 15.2623 48.9781 14.8233 49.3031 14.142L49.4 13.9404H58.4891V72.8701H22.5141V13.9389H29.4469C29.7484 13.9389 29.9938 13.6936 29.9938 13.392C29.9938 13.0904 29.7484 12.8451 29.4469 12.8451H21.9672C21.6656 12.8451 21.4203 13.0904 21.4203 13.392V73.4154C21.4203 73.717 21.6656 73.9623 21.9672 73.9623H59.0359C59.3375 73.9623 59.5828 73.717 59.5828 73.4154V13.392C59.5828 13.0904 59.3375 12.8451 59.0359 12.8451H49.9234L51.5984 9.34044C51.7687 8.98576 51.7437 8.57482 51.5344 8.24201C51.325 7.90919 50.9641 7.71076 50.5703 7.71076H45.3125C45.4047 7.20138 45.4156 6.68107 45.3422 6.15607C45.0391 3.96388 43.2219 2.20763 41.0219 1.97951C39.6359 1.83576 38.2547 2.28419 37.2281 3.20919C36.7195 3.66795 36.3127 4.2283 36.0342 4.85406C35.7556 5.47981 35.6114 6.15705 35.6109 6.84201C35.6109 7.13576 35.6375 7.42638 35.6891 7.71232H30.4297C30.0359 7.71232 29.6766 7.91076 29.4656 8.24357C29.3672 8.40002 29.3082 8.57804 29.2938 8.76232H19.8438C18.4609 8.76232 17.3359 9.88732 17.3359 11.2701V75.5373C17.3359 76.9201 18.4609 78.0451 19.8438 78.0451H61.1516C62.5344 78.0451 63.6594 76.9201 63.6594 75.5373V11.2701C63.6641 9.88732 62.5391 8.76232 61.1562 8.76232ZM38.7625 6.84201C38.7625 5.88107 39.5406 5.10294 40.5016 5.10294C41.4625 5.10294 42.2406 5.88107 42.2406 6.84201C42.2406 7.80138 41.4625 8.58107 40.5016 8.58107C39.5406 8.58107 38.7625 7.80138 38.7625 6.84201ZM50.6094 8.82638C50.6219 8.84669 50.6156 8.86232 50.6125 8.87013L48.3188 13.6701C48.2471 13.8191 48.1349 13.9448 47.9951 14.0329C47.8552 14.1211 47.6934 14.1681 47.5281 14.1686H44.9797C45.8599 13.7008 46.5669 12.9632 46.9969 12.0639L48.5547 8.80763H50.5719C50.5797 8.80607 50.5953 8.80607 50.6094 8.82638Z" fill="#9A9A9A"/>
<path d="M31.8262 41.1889L28.9934 44.0217L27.7699 42.7982C27.5559 42.5842 27.2105 42.5842 26.9965 42.7982C26.7824 43.0123 26.7824 43.3576 26.9965 43.5717L28.6059 45.1811C28.7121 45.2873 28.8527 45.3404 28.9918 45.3404C29.1309 45.3404 29.2715 45.2873 29.3777 45.1811L32.598 41.9607C32.6489 41.91 32.6893 41.8497 32.7168 41.7834C32.7444 41.717 32.7586 41.6459 32.7586 41.574C32.7586 41.5022 32.7444 41.431 32.7168 41.3647C32.6893 41.2983 32.6489 41.238 32.598 41.1873C32.3871 40.9764 32.0402 40.9764 31.8262 41.1889ZM32.5996 48.7842C32.5489 48.7333 32.4886 48.6929 32.4222 48.6654C32.3559 48.6378 32.2847 48.6237 32.2129 48.6237C32.141 48.6237 32.0699 48.6378 32.0035 48.6654C31.9372 48.6929 31.8769 48.7333 31.8262 48.7842L28.9934 51.617L27.7699 50.3936C27.5559 50.1795 27.2105 50.1795 26.9965 50.3936C26.7824 50.6076 26.7824 50.9529 26.9965 51.167L28.6059 52.7764C28.7121 52.8826 28.8527 52.9357 28.9918 52.9357C29.1309 52.9357 29.2715 52.8826 29.3777 52.7764L32.598 49.5561C32.8137 49.3451 32.8137 48.9982 32.5996 48.7842ZM28.9934 60.5342C29.134 60.5342 29.273 60.4811 29.3793 60.3748L32.5996 57.1545C32.8137 56.9404 32.8137 56.5951 32.5996 56.3811C32.3855 56.167 32.0402 56.167 31.8262 56.3811L28.9934 59.2139L27.7699 57.9904C27.5559 57.7764 27.2105 57.7764 26.9965 57.9904C26.7824 58.2045 26.7824 58.5498 26.9965 58.7639L28.6059 60.3732C28.7137 60.4811 28.8527 60.5342 28.9934 60.5342ZM28.6074 67.9701C28.7137 68.0764 28.8543 68.1295 28.9934 68.1295C29.1324 68.1295 29.273 68.0764 29.3793 67.9701L32.5996 64.7498C32.8137 64.5357 32.8137 64.1904 32.5996 63.9764C32.3855 63.7623 32.0402 63.7623 31.8262 63.9764L28.9934 66.8092L27.7699 65.5857C27.5559 65.3717 27.2105 65.3717 26.9965 65.5857C26.7824 65.7998 26.7824 66.1451 26.9965 66.3592L28.6074 67.9701ZM36.1699 43.7326H54.309C54.6105 43.7326 54.8559 43.4873 54.8559 43.1857C54.8559 42.8842 54.6105 42.6389 54.309 42.6389H36.1699C35.8684 42.6389 35.623 42.8842 35.623 43.1857C35.623 43.4873 35.8684 43.7326 36.1699 43.7326ZM36.1699 51.3279H54.309C54.6105 51.3279 54.8559 51.0826 54.8559 50.7811C54.8559 50.4795 54.6105 50.2342 54.309 50.2342H36.1699C35.8684 50.2342 35.623 50.4795 35.623 50.7811C35.623 51.0826 35.8684 51.3279 36.1699 51.3279ZM36.1699 58.9232H54.309C54.6105 58.9232 54.8559 58.6779 54.8559 58.3764C54.8559 58.0748 54.6105 57.8295 54.309 57.8295H36.1699C35.8684 57.8295 35.623 58.0748 35.623 58.3764C35.623 58.6779 35.8684 58.9232 36.1699 58.9232ZM36.1699 66.5201H54.309C54.6105 66.5201 54.8559 66.2748 54.8559 65.9732C54.8559 65.6717 54.6105 65.4264 54.309 65.4264H36.1699C35.8684 65.4264 35.623 65.6717 35.623 65.9732C35.623 66.2748 35.8684 66.5201 36.1699 66.5201Z" fill="#9A9A9A"/>
<path d="M40.3867 19C35.3301 19 31.2305 23.0997 31.2305 28.1562C31.2305 33.2128 35.3301 37.3125 40.3867 37.3125C45.4433 37.3125 49.543 33.2128 49.543 28.1562C49.5443 23.0997 45.4446 19 40.3867 19Z" fill="#0166FF"/>
<path d="M39.5948 31.317L45.4223 25.7481C45.5653 25.6008 45.6458 25.4039 45.647 25.1986C45.6482 24.9933 45.5699 24.7955 45.4287 24.6466C45.2874 24.4976 45.0941 24.409 44.889 24.3993C44.684 24.3896 44.4831 24.4596 44.3284 24.5945L39.0379 29.6364L36.6711 27.379C36.5964 27.302 36.5069 27.241 36.408 27.1995C36.3091 27.158 36.2029 27.1369 36.0956 27.1375C35.9884 27.1381 35.8824 27.1604 35.784 27.2031C35.6855 27.2457 35.5968 27.3078 35.523 27.3857C35.4492 27.4635 35.3919 27.5554 35.3545 27.656C35.3172 27.7565 35.3005 27.8635 35.3056 27.9707C35.3106 28.0778 35.3373 28.1828 35.384 28.2794C35.4307 28.3759 35.4964 28.462 35.5772 28.5325L38.491 31.317C38.638 31.4581 38.8341 31.5366 39.0379 31.5358C39.2448 31.5371 39.4442 31.4587 39.5948 31.317Z" fill="white"/>
</svg>

<svg xmlns="http://www.w3.org/2000/svg" width="81" height="80" fill="none"><path fill="#E1EAF8" d="M46.37 65.342h6.525v-6.478h-3.11a.547.547 0 0 1 0-1.094h3.099a2.284 2.284 0 0 0-3.08-1.922L39.44 59.751a2.965 2.965 0 0 0-1.92 2.777v2.553a3.5 3.5 0 0 0 3.501 3.501h10.122c.967 0 1.752-.784 1.752-1.751v-.394h-6.526a.548.548 0 0 1 0-1.095"/><path fill="#9A9A9A" d="M61.156 8.762h-7.604a.547.547 0 0 0 0 1.094h7.604c.78 0 1.414.634 1.414 1.414v64.267c0 .78-.634 1.414-1.414 1.414h-41.31c-.779 0-1.413-.634-1.413-1.414V11.27c0-.78.634-1.414 1.414-1.414h9.803l2.048 4.286a1.98 1.98 0 0 0 1.777 1.12h14.052c.754 0 1.451-.439 1.776-1.12l.097-.202h9.09v58.93H22.513V13.94h6.933a.548.548 0 0 0 0-1.094h-7.48a.547.547 0 0 0-.547.547v60.023c0 .302.246.547.547.547h37.069a.547.547 0 0 0 .547-.547V13.392a.547.547 0 0 0-.547-.547h-9.113l1.675-3.505c.17-.354.146-.765-.064-1.098a1.13 1.13 0 0 0-.964-.531h-5.257a4.9 4.9 0 0 0 .03-1.555c-.304-2.192-2.121-3.948-4.321-4.176a4.91 4.91 0 0 0-3.794 1.23 4.9 4.9 0 0 0-1.539 4.502h-5.26a1.135 1.135 0 0 0-1.135 1.05h-9.45a2.51 2.51 0 0 0-2.508 2.508v64.267a2.51 2.51 0 0 0 2.508 2.508h41.308a2.51 2.51 0 0 0 2.507-2.508V11.27a2.504 2.504 0 0 0-2.503-2.508m-22.393-1.92a1.738 1.738 0 1 1 3.476-.001 1.738 1.738 0 0 1-3.476.001m11.846 1.984c.013.02.007.036.003.044l-2.293 4.8a.88.88 0 0 1-.79.499h-2.55a4.66 4.66 0 0 0 2.018-2.105l1.558-3.256h2.017c.008-.002.023-.002.037.018"/><path fill="#9A9A9A" d="m31.826 41.189-2.833 2.833-1.223-1.224a.546.546 0 1 0-.773.774l1.609 1.61a.545.545 0 0 0 .772 0l3.22-3.221a.545.545 0 1 0-.772-.772m.774 7.595a.545.545 0 0 0-.774 0l-2.833 2.833-1.223-1.223a.546.546 0 1 0-.773.773l1.609 1.61a.545.545 0 0 0 .772 0l3.22-3.22a.543.543 0 0 0 .002-.773m-3.607 11.75c.141 0 .28-.053.386-.16l3.22-3.22a.546.546 0 1 0-.773-.773l-2.833 2.833-1.223-1.224a.546.546 0 1 0-.773.774l1.609 1.61a.54.54 0 0 0 .387.16m-.386 7.436a.545.545 0 0 0 .772 0l3.22-3.22a.546.546 0 1 0-.773-.774l-2.833 2.833-1.223-1.223a.546.546 0 1 0-.773.773zm7.563-24.237h18.139a.548.548 0 0 0 0-1.094h-18.14a.548.548 0 0 0 0 1.094m0 7.595h18.139a.548.548 0 0 0 0-1.094h-18.14a.548.548 0 0 0 0 1.094m0 7.595h18.139a.548.548 0 0 0 0-1.093h-18.14a.548.548 0 0 0 0 1.093m0 7.597h18.139a.548.548 0 0 0 0-1.094h-18.14a.548.548 0 0 0 0 1.094"/><path fill="#0166FF" d="M40.387 19a9.157 9.157 0 1 0 0 18.313 9.157 9.157 0 0 0 0-18.313"/><path fill="#fff" d="m39.595 31.317 5.827-5.569a.796.796 0 0 0-1.094-1.154l-5.29 5.042-2.367-2.257a.795.795 0 1 0-1.094 1.153l2.914 2.785a.805.805 0 0 0 1.104 0"/></svg>
